ZUCCAL
CUT["Der Traum"
    ICH HAB DIE NACHT GETRAEUMET]
REG[Europa, Mitteleuropa, Deutschland, Schlesien]
KEY[Z1267  16  G 6/8]
MEL[-5_  1__2_3b_2_1_  5__.2__
    4_  3b_.21_-7__1_  2__0__.
    1_  5__5_3b__1_  +1__.6b__
    4_  3b_.21_2_.1-7_  1__0__. //] >>
FCT[Natur und Welt, Tod]
